app/assets/v2/images/metafunders/ecf_logo.svg

<?xml version="1.0" encoding="UTF-8"?>
<svg width="824px" height="928px" viewBox="0 0 824 928" version="1.1" xmlns="http://www.w3.org/2000/svg" xmlns:xlink="http://www.w3.org/1999/xlink">
    <!-- Generator: Sketch 51.3 (57544) - http://www.bohemiancoding.com/sketch -->
    <title>ecf</title>
    <desc>Created with Sketch.</desc>
    <defs>
        <polygon id="path-1" points="0.3377228 928 823.337723 928 823.337723 0.4885 0.3377228 0.4885"></polygon>
        <polygon id="path-3" points="0.3377228 928 823.337723 928 823.337723 0.4885 0.3377228 0.4885"></polygon>
        <polygon id="path-5" points="0.3377228 928 823.337723 928 823.337723 0.4885 0.3377228 0.4885"></polygon>
        <polygon id="path-7" points="0.3377228 928 823.337723 928 823.337723 0.4885 0.3377228 0.4885"></polygon>
        <polygon id="path-9" points="0.3377228 928 823.337723 928 823.337723 0.4885 0.3377228 0.4885"></polygon>
        <polygon id="path-11" points="0.3377228 928 823.337723 928 823.337723 0.4885 0.3377228 0.4885"></polygon>
        <polygon id="path-13" points="0.3377228 928 823.337723 928 823.337723 0.4885 0.3377228 0.4885"></polygon>
        <polygon id="path-15" points="0.3377228 928 823.337723 928 823.337723 0.4885 0.3377228 0.4885"></polygon>
    </defs>
    <g id="Page-1" stroke="none" stroke-width="1" fill="none" fill-rule="evenodd">
        <g id="ecf">
            <g>
                <g id="Fill-1-Clipped">
                    <g>
                        <mask id="mask-2" fill="white">
                            <use xlink:href="#path-1"></use>
                        </mask>
                        <g id="path-1"></g>
                        <path d="M132.2642,138.7676 L75.43326,171.8477 C38.06891,193.4275 37.55688,226.414 75.16205,248.1577 L411.841,444.0967 L535.3554,372.0577 L132.2642,138.7676 Z" id="Fill-1" fill="#333333" fill-rule="nonzero" mask="url(#mask-2)"></path>
                    </g>
                </g>
                <g id="Fill-3-Clipped">
                    <g>
                        <mask id="mask-4" fill="white">
                            <use xlink:href="#path-3"></use>
                        </mask>
                        <g id="path-3"></g>
                        <path d="M690.8225,281.6869 L814.0891,210.1113 L484.5646,18.4527 C441.5585,-6.3334 378.8848,-4.5477 341.5205,17.0322 L287.6565,48.4553 L690.8225,281.6869 Z" id="Fill-3" fill="#333333" fill-rule="nonzero" mask="url(#mask-4)"></path>
                    </g>
                </g>
                <g id="Fill-4-Clipped">
                    <g>
                        <mask id="mask-6" fill="white">
                            <use xlink:href="#path-5"></use>
                        </mask>
                        <g id="path-5"></g>
                        <polygon id="Fill-4" fill="#333333" fill-rule="nonzero" mask="url(#mask-6)" points="551.6013 362.7094 674.4775 291.2297 271.3114 57.8998 148.4213 129.4263"></polygon>
                    </g>
                </g>
                <g id="Fill-5-Clipped">
                    <g>
                        <mask id="mask-8" fill="white">
                            <use xlink:href="#path-7"></use>
                        </mask>
                        <g id="path-7"></g>
                        <path d="M402.4722,684.9845 L402.4886,460.295 L65.50567,264.225 C27.93558,242.5117 0.3372552,264.4473 0.3372552,307.572 L0.3442693,450.9338 L402.4722,684.9845 Z" id="Fill-5" fill="#333333" fill-rule="nonzero" mask="url(#mask-8)"></path>
                    </g>
                </g>
                <g id="Fill-6-Clipped">
                    <g>
                        <mask id="mask-10" fill="white">
                            <use xlink:href="#path-9"></use>
                        </mask>
                        <g id="path-9"></g>
                        <path d="M0.3438017,469.6569 L0.4419997,614.8395 C0.4419997,670.0775 31.29722,712.3667 68.86966,734.0776 L402.4881,928.354981 L402.4881,703.6959 L0.3438017,469.6569 Z" id="Fill-6" fill="#333333" fill-rule="nonzero" mask="url(#mask-10)"></path>
                    </g>
                </g>
                <g id="Fill-7-Clipped">
                    <g>
                        <mask id="mask-12" fill="white">
                            <use xlink:href="#path-11"></use>
                        </mask>
                        <g id="path-11"></g>
                        <path d="M823.3368,371.3633 L823.3368,226.2649 L496.0194,416.7604 C452.0571,442.4358 421.1925,488.4694 421.1925,539.5347 L421.1925,605.3929 L823.3368,371.3633 Z" id="Fill-7" fill="#333333" fill-rule="nonzero" mask="url(#mask-12)"></path>
                    </g>
                </g>
                <g id="Fill-8-Clipped">
                    <g>
                        <mask id="mask-14" fill="white">
                            <use xlink:href="#path-13"></use>
                        </mask>
                        <g id="path-13"></g>
                        <polygon id="Fill-8" fill="#333333" fill-rule="nonzero" mask="url(#mask-14)" points="684.2959 611.382 684.2959 471.2755 421.193 624.1155 421.193 764.5333"></polygon>
                    </g>
                </g>
                <g id="Fill-9-Clipped">
                    <g>
                        <mask id="mask-16" fill="white">
                            <use xlink:href="#path-15"></use>
                        </mask>
                        <g id="path-15"></g>
                        <polygon id="Fill-9" fill="#333333" fill-rule="nonzero" mask="url(#mask-16)" points="421.1925 783.2566 421.1925 928.354981 544.8986 856.36981 544.8986 711.5453"></polygon>
                    </g>
                </g>
            </g>
        </g>
    </g>
</svg>

<svg width="824" height="928" xmlns="http://www.w3.org/2000/svg" xmlns:xlink="http://www.w3.org/1999/xlink"><defs><path id="a" d="M.338 928h823V.489h-823z"/><path id="c" d="M.338 928h823V.489h-823z"/><path id="e" d="M.338 928h823V.489h-823z"/><path id="g" d="M.338 928h823V.489h-823z"/><path id="i" d="M.338 928h823V.489h-823z"/><path id="k" d="M.338 928h823V.489h-823z"/><path id="m" d="M.338 928h823V.489h-823z"/><path id="o" d="M.338 928h823V.489h-823z"/></defs><g fill="none" fill-rule="evenodd"><mask id="b" fill="#fff"><use xlink:href="#a"/></mask><path d="M132.264 138.768l-56.83 33.08c-37.365 21.58-37.877 54.566-.272 76.31l336.679 195.939 123.514-72.04-403.09-233.29z" fill="#333" fill-rule="nonzero" mask="url(#b)"/><mask id="d" fill="#fff"><use xlink:href="#c"/></mask><path d="M690.822 281.687L814.09 210.11 484.565 18.453c-43.007-24.786-105.68-23-143.044-1.42l-53.865 31.422 403.166 233.232z" fill="#333" fill-rule="nonzero" mask="url(#d)"/><mask id="f" fill="#fff"><use xlink:href="#e"/></mask><path fill="#333" fill-rule="nonzero" mask="url(#f)" d="M551.601 362.71l122.876-71.48L271.311 57.9l-122.89 71.526z"/><g><mask id="h" fill="#fff"><use xlink:href="#g"/></mask><path d="M402.472 684.985l.017-224.69-336.983-196.07c-37.57-21.713-65.169.222-65.169 43.347l.007 143.362 402.128 234.05z" fill="#333" fill-rule="nonzero" mask="url(#h)"/></g><g><mask id="j" fill="#fff"><use xlink:href="#i"/></mask><path d="M.344 469.657L.442 614.84c0 55.237 30.855 97.527 68.428 119.238l333.618 194.277v-224.66L.344 469.658z" fill="#333" fill-rule="nonzero" mask="url(#j)"/></g><g><mask id="l" fill="#fff"><use xlink:href="#k"/></mask><path d="M823.337 371.363V226.265L496.019 416.76c-43.962 25.676-74.827 71.71-74.827 122.775v65.858l402.145-234.03z" fill="#333" fill-rule="nonzero" mask="url(#l)"/></g><g><mask id="n" fill="#fff"><use xlink:href="#m"/></mask><path fill="#333" fill-rule="nonzero" mask="url(#n)" d="M684.296 611.382V471.276l-263.103 152.84v140.417z"/></g><g><mask id="p" fill="#fff"><use xlink:href="#o"/></mask><path fill="#333" fill-rule="nonzero" mask="url(#p)" d="M421.192 783.257v145.098L544.9 856.37V711.545z"/></g></g></svg>
